X: 3
T: Coleman's March
C: Traditional Southern
L: 1/8
M: 4/4
K: D
|: DE | "D"F6 EF | "G"G6 FG | "D"A3 B A2 F2 | "A" E6 FG |
        "D"A2 d2 "A"c4 | "G"BcBA "D"FE D2 | "A"E3 F GF E2 | "D" D6 :|
|: Bc | "Bm" d4 d3 e | "A"c8 | "G"B2 Bc dc B2 | "D"A6 FG |
        "D"A2 d2 "A"c4 | "G"BcBA "D"FE D2 | "A"E3 F GF E2 | "D" D6 :|

